X: 325
%
T: Lasses Like Nae Brandy
C:
O:Scotland
B:Keith Norman MacDonald : "The Skye collection of the best reels & strathspeys extant" : 1887
Z:Ralph Palmer
R:Reel
M:C
L:1/8
K:A
f | (ef/2g/2)ae fdec | B=ggB d2f2 | (ef/2g/2)ae fdec | Aaac e2 f :| f | eAcA eAcA | B=ggB d2 f2 |
eAcA aecA | Aaac e2 f2 | eAcA eAcA | B=ggB d2 (e/2f/2g) | af=ge fdec | bBBc d2 f |]


